static/assets/svg/human/humanClothes/pants3_stickers/pants3_sticker4.svg

<svg class="bottomOverlay" width="86" height="380" viewBox="202.715 584.407 86.593 380.048" xmlns="http://www.w3.org/2000/svg"><path stroke="#000" fill="#525252" d="M210.024 788.439l24.971-3.654 1.218 8.527 7.308-1.828-1.218-6.699h-4.872v-1.827l42.024.609v11.572l-34.715-.609-15.836.609-20.098 3.654z"/><path d="M235.199 796.783a73.164 73.164 0 0 0 1.975-.33 62.735 62.735 0 0 1 1.616-.276c.904-.142 3.216-.875 4.041-1.283.296-.145 1.045-.601 1.661-1.012 1-.665 1.151-.844 1.379-1.645.14-.496.799-2.88 1.463-5.299.664-2.42 1.268-4.467 1.341-4.55.074-.085.343-.014.602.154.449.295.467.293.467-.041 0-.713-.742-1.128-2.351-1.313-4.273-.49-11.151-.364-13.72.252-.593.142-1.602.379-2.245.528-.641.147-1.641.447-2.221.666l-1.054.397.129 2.896c.072 1.593.142 2.909.157 2.923.016.015.621-.106 1.345-.269l1.319-.296-.122-1.347c-.068-.742-.19-1.417-.273-1.503-.082-.086-.064-.341.038-.567.282-.62 1.961-.877 5.8-.886 3.622-.009 6.285.207 6.554.53.119.146-.027 1.796-.449 5.046-.345 2.657-.627 4.843-.627 4.857-.001.014-.545.154-1.213.311-1.758.413-3.672.635-6.616.77-3.567.162-3.485.217-3.485-2.293 0-1.063-.075-1.981-.169-2.038-.262-.163-1.607.316-1.738.619-.427.995-.386 2.827.104 4.644l.21.781 2.459-.124c1.352-.068 2.982-.203 3.623-.302zm-3.085-2.632c.058-.591-.165-.722-.675-.4-.212.134-.219.251-.043.641.28.612.647.49.718-.241zm.113-1.311c.103-.091-.017-.156-.29-.156-.255 0-.57.126-.697.28-.205.248-.169.266.293.156.289-.068.601-.194.694-.28zm-.032-.993c-.12-.048-.363-.052-.539-.005-.174.045-.075.084.221.09.297.003.44-.034.318-.085zm-3.214-1.068c.506-.158 1.205-.381 1.55-.494.391-.127 2.057-.205 4.397-.205 3.365 0 3.773-.032 3.825-.298.039-.203-.101-.33-.446-.4-.434-.088-3.286-.544-4.498-.72-.22-.031-.493.052-.605.187-.237.283-.698.326-.698.064 0-.623-3.2.259-4.274 1.18-1.111.95-.852 1.187.749.686zm3.297.002c-.06-.061-.214-.067-.343-.015-.144.058-.101.099.108.108.188.007.296-.034.235-.093zm15.67-2.322c0-.25.122-.501.27-.559.343-.131.351-.423.012-.423-.142 0-.309.181-.373.404l-.203.718c-.049.172-.002.314.104.314.104 0 .19-.205.19-.454zm-15.516-1.162c.14 0 .253-.081.253-.179 0-.27-.425-.216-.818.104-.318.26-.32.274-.018.179.179-.057.443-.104.583-.104zm16.549-.763a.353.353 0 0 0-.315-.224c-.131 0-.272.1-.314.224-.043.133.083.224.314.224.232 0 .36-.091.315-.224zm-16.104-1.316c.207-.25.164-.277-.368-.225-.332.033-.637.16-.677.284-.109.33.764.282 1.045-.059zm16.508-.056c0-.53-.487-.61-.584-.097-.065.336-.007.437.25.437.208 0 .334-.128.334-.34zm.359-1.278c0-.078-.12-.187-.27-.243-.147-.057-.269-.072-.269-.034 0 .038-.047.192-.104.341-.077.203-.011.246.269.173.207-.054.374-.16.374-.237z" fill="#ff00f7"/><ellipse transform="matrix(-.7071 .7071 -.70711 -.7071 495.91 907.552)" cx="86.485" cy="255.802" rx="1.723" ry="1.723" fill="#ff00f7"/><ellipse transform="matrix(-.7071 .7071 -.70713 -.7071 502.642 907.895)" cx="86.484" cy="255.8" rx="1.723" ry="1.723" fill="#ff00f7"/><ellipse transform="matrix(-.7071 .7071 -.70713 -.7071 509.3 908.037)" cx="86.484" cy="255.8" rx="1.723" ry="1.723" fill="#ff00f7"/><ellipse transform="matrix(-.7071 .7071 -.70713 -.7071 516.524 908.178)" cx="86.484" cy="255.8" rx="1.723" ry="1.723" fill="#ff00f7"/><path fill="#ff00f7" d="M210.753 790.978h3.436v3.927h-3.436zM216.795 789.89h3.436v3.926h-3.436zM222.903 789.037h3.436v3.927h-3.436z"/></svg>

<svg class="bottomOverlay" width="86" height="380" viewBox="202.715 584.407 86.5933 380.048" preserveAspectRatio="xMidYMid meet" xmlns="http://www.w3.org/2000/svg">
  <defs id="svgEditorDefs">
    <path id="svgEditorClosePathDefs" fill="moccasin" style="stroke-width: 0px; stroke: none; fill-opacity: 1;" class="clothes"/>
  </defs>
  <polygon style="stroke: rgb(0, 0, 0); fill: rgb(82, 82, 82);" points="210.024 788.439 234.995 784.785 236.213 793.312 243.521 791.484 242.303 784.785 237.431 784.785 237.431 782.958 279.455 783.567 279.455 788.439 279.455 795.139 244.74 794.53 228.904 795.139 208.806 798.793"/>
  <path id="path37354" d="M 235.199 796.783 C 235.842 796.685 236.731 796.536 237.174 796.453 C 237.62 796.37 238.347 796.245 238.79 796.177 C 239.694 796.035 242.006 795.302 242.831 794.894 C 243.127 794.749 243.876 794.293 244.492 793.882 C 245.492 793.217 245.643 793.038 245.871 792.237 C 246.011 791.741 246.67 789.357 247.334 786.938 C 247.998 784.518 248.602 782.471 248.675 782.388 C 248.749 782.303 249.018 782.374 249.277 782.542 C 249.726 782.837 249.744 782.835 249.744 782.501 C 249.744 781.788 249.002 781.373 247.393 781.188 C 243.12 780.698 236.242 780.824 233.673 781.44 C 233.08 781.582 232.071 781.819 231.428 781.968 C 230.787 782.115 229.787 782.415 229.207 782.634 L 228.153 783.031 L 228.282 785.927 C 228.354 787.52 228.424 788.836 228.439 788.85 C 228.455 788.865 229.06 788.744 229.784 788.581 L 231.103 788.285 L 230.981 786.938 C 230.913 786.196 230.791 785.521 230.708 785.435 C 230.626 785.349 230.644 785.094 230.746 784.868 C 231.028 784.248 232.707 783.991 236.546 783.982 C 240.168 783.973 242.831 784.189 243.1 784.512 C 243.219 784.658 243.073 786.308 242.651 789.558 C 242.306 792.215 242.024 794.401 242.024 794.415 C 242.023 794.429 241.479 794.569 240.811 794.726 C 239.053 795.139 237.139 795.361 234.195 795.496 C 230.628 795.658 230.71 795.713 230.71 793.203 C 230.71 792.14 230.635 791.222 230.541 791.165 C 230.279 791.002 228.934 791.481 228.803 791.784 C 228.376 792.779 228.417 794.611 228.907 796.428 L 229.117 797.209 L 231.576 797.085 C 232.928 797.017 234.558 796.882 235.199 796.783 Z M 232.114 794.151 C 232.172 793.56 231.949 793.429 231.439 793.751 C 231.227 793.885 231.22 794.002 231.396 794.392 C 231.676 795.004 232.043 794.882 232.114 794.151 Z M 232.227 792.84 C 232.33 792.749 232.21 792.684 231.937 792.684 C 231.682 792.684 231.367 792.81 231.24 792.964 C 231.035 793.212 231.071 793.23 231.533 793.12 C 231.822 793.052 232.134 792.926 232.227 792.84 Z M 232.195 791.847 C 232.075 791.799 231.832 791.795 231.656 791.842 C 231.482 791.887 231.581 791.926 231.877 791.932 C 232.174 791.935 232.317 791.898 232.195 791.847 Z M 228.981 790.779 C 229.487 790.621 230.186 790.398 230.531 790.285 C 230.922 790.158 232.588 790.08 234.928 790.08 C 238.293 790.08 238.701 790.048 238.753 789.782 C 238.792 789.579 238.652 789.452 238.307 789.382 C 237.873 789.294 235.021 788.838 233.809 788.662 C 233.589 788.631 233.316 788.714 233.204 788.849 C 232.967 789.132 232.506 789.175 232.506 788.913 C 232.506 788.29 229.306 789.172 228.232 790.093 C 227.121 791.043 227.38 791.28 228.981 790.779 Z M 232.278 790.781 C 232.218 790.72 232.064 790.714 231.935 790.766 C 231.791 790.824 231.834 790.865 232.043 790.874 C 232.231 790.881 232.339 790.84 232.278 790.781 Z M 247.948 788.459 C 247.948 788.209 248.07 787.958 248.218 787.9 C 248.561 787.769 248.569 787.477 248.23 787.477 C 248.088 787.477 247.921 787.658 247.857 787.881 C 247.794 788.103 247.702 788.427 247.654 788.599 C 247.605 788.771 247.652 788.913 247.758 788.913 C 247.862 788.913 247.948 788.708 247.948 788.459 Z M 232.432 787.297 C 232.572 787.297 232.685 787.216 232.685 787.118 C 232.685 786.848 232.26 786.902 231.867 787.222 C 231.549 787.482 231.547 787.496 231.849 787.401 C 232.028 787.344 232.292 787.297 232.432 787.297 Z M 248.981 786.534 C 248.939 786.41 248.799 786.31 248.666 786.31 C 248.535 786.31 248.394 786.41 248.352 786.534 C 248.309 786.667 248.435 786.758 248.666 786.758 C 248.898 786.758 249.026 786.667 248.981 786.534 Z M 232.877 785.218 C 233.084 784.968 233.041 784.941 232.509 784.993 C 232.177 785.026 231.872 785.153 231.832 785.277 C 231.723 785.607 232.596 785.559 232.877 785.218 Z M 249.385 785.162 C 249.385 784.632 248.898 784.552 248.801 785.065 C 248.736 785.401 248.794 785.502 249.051 785.502 C 249.259 785.502 249.385 785.374 249.385 785.162 Z M 249.744 783.884 C 249.744 783.806 249.624 783.697 249.474 783.641 C 249.327 783.584 249.205 783.569 249.205 783.607 C 249.205 783.645 249.158 783.799 249.101 783.948 C 249.024 784.151 249.09 784.194 249.37 784.121 C 249.577 784.067 249.744 783.961 249.744 783.884 Z" style="fill: rgb(255, 0, 247);"/>
  <ellipse transform="matrix(-0.707102, 0.707093, -0.707111, -0.707093, 495.909263, 907.552459)" cx="86.485" cy="255.802" rx="1.723" ry="1.723" style="fill: rgb(255, 0, 247);"/>
  <ellipse transform="matrix(-0.707103, 0.707103, -0.707133, -0.707097, 502.642388, 907.894815)" cx="86.484" cy="255.8" rx="1.723" ry="1.723" style="fill: rgb(255, 0, 247);"/>
  <ellipse transform="matrix(-0.707103, 0.707103, -0.707133, -0.707097, 509.299768, 908.036538)" cx="86.484" cy="255.8" rx="1.723" ry="1.723" style="fill: rgb(255, 0, 247);"/>
  <ellipse transform="matrix(-0.707103, 0.707103, -0.707133, -0.707097, 516.523706, 908.178201)" cx="86.484" cy="255.8" rx="1.723" ry="1.723" style="fill: rgb(255, 0, 247);"/>
  <rect transform="matrix(0.999998, 0, 0, 0.999994, 167.310449, 718.573199)" x="43.443" y="72.405" width="3.436" height="3.927" style="fill: rgb(255, 0, 247);"/>
  <rect transform="matrix(0.999999, 0, 0, 1.000008, 173.351927, 717.483667)" x="43.443" y="72.405" width="3.436" height="3.927" style="fill: rgb(255, 0, 247);"/>
  <rect transform="matrix(0.999999, 0, 0, 1.000008, 179.459548, 716.63151)" x="43.443" y="72.405" width="3.436" height="3.927" style="fill: rgb(255, 0, 247);"/>
</svg>
